X:13
T:Dálaigh's (Downeys), Cormac Begley ver.
R:polka
M:2/4
L:1/8
K:Ador
G,2|:A,2 B,D|EA AG|EG/2E/2 DB,|A,B, G,2|
A,>B, CD|EA AG|EG/2E/2 DB,|1 B,A, A,G,:|2 B,A, A,2||
|:A2 AB|dB AG|EA AB|dB G2|
EA AB|dB AG| EG/2E/2 DB,|1 B,A, A,2:|2 B,A, A,G,||

